public/-₦98,000.svg

<svg width="243" height="46" viewBox="0 0 243 46" fill="none" xmlns="http://www.w3.org/2000/svg">
<path d="M0.661531 28.004V19.892H14.6495V28.004H0.661531ZM22.5186 37V24.52H19.1386V20.62H22.5186V18.02H19.1386V14.12H22.5186V1.224H32.9706L41.6546 14.12H46.9586V1.224H56.5266V14.12H59.9066V18.02H56.5266V20.62H59.9066V24.52H56.5266V37H46.1266L37.7026 24.52H32.0866V37H22.5186ZM32.0866 20.62H35.1026L32.0866 16.2V20.62ZM46.9586 21.972V18.02H44.3066L46.9586 21.972ZM62.468 12.924C62.468 10.4973 63.0227 8.348 64.132 6.476C65.276 4.604 66.888 3.13066 68.968 2.056C71.048 0.981332 73.5093 0.444 76.352 0.444C79.7147 0.444 82.5053 1.15467 84.724 2.576C86.9773 3.99733 88.6587 5.97333 89.768 8.504C90.912 11 91.484 13.9293 91.484 17.292C91.484 21.2093 90.7213 24.6933 89.196 27.744C87.7053 30.76 85.608 33.1173 82.904 34.816C80.2 36.5147 77.0453 37.364 73.44 37.364C71.6027 37.364 69.8867 37.1733 68.292 36.792C66.6973 36.376 65.276 35.7173 64.028 34.816L66.16 27.328C67.1653 27.8827 68.2053 28.316 69.28 28.628C70.3547 28.9053 71.4293 29.044 72.504 29.044C75.0347 29.044 77.028 28.1773 78.484 26.444C79.9747 24.676 80.8413 22.2493 81.084 19.164C80.2173 20.7587 79.0387 21.92 77.548 22.648C76.092 23.376 74.7053 23.74 73.388 23.74C71.1693 23.74 69.228 23.2893 67.564 22.388C65.9347 21.4867 64.6693 20.2213 63.768 18.592C62.9013 16.9627 62.468 15.0733 62.468 12.924ZM71.88 12.248C71.88 13.4267 72.2787 14.38 73.076 15.108C73.908 15.8013 74.9827 16.148 76.3 16.148C77.132 16.148 77.964 16.044 78.796 15.836C79.628 15.5933 80.3907 15.2467 81.084 14.796C80.7027 10.22 79.108 7.932 76.3 7.932C74.948 7.932 73.8733 8.33067 73.076 9.128C72.2787 9.92533 71.88 10.9653 71.88 12.248ZM93.9682 27.9C93.9682 24.26 96.3082 21.5907 100.988 19.892C99.6016 18.9907 98.4229 17.8293 97.4522 16.408C96.4816 14.9867 95.9962 13.1493 95.9962 10.896C95.9962 8.74667 96.5509 6.892 97.6602 5.332C98.8042 3.772 100.347 2.576 102.288 1.744C104.23 0.877332 106.448 0.444 108.944 0.444C111.198 0.444 113.191 0.807999 114.924 1.536C116.658 2.22933 118.01 3.2 118.98 4.448C119.986 5.696 120.488 7.152 120.488 8.816C120.488 10.5147 120.072 11.9533 119.24 13.132C118.408 14.276 117.074 15.2467 115.236 16.044C116.588 16.668 117.836 17.4307 118.98 18.332C120.159 19.1987 121.095 20.2733 121.788 21.556C122.516 22.8387 122.88 24.416 122.88 26.288C122.88 28.6453 122.222 30.6907 120.904 32.424C119.587 34.1227 117.836 35.4227 115.652 36.324C113.503 37.2253 111.111 37.676 108.476 37.676C105.564 37.676 103.016 37.2773 100.832 36.48C98.6829 35.6827 97.0016 34.556 95.7882 33.1C94.5749 31.644 93.9682 29.9107 93.9682 27.9ZM104.472 9.232C104.472 10.4107 105.062 11.364 106.24 12.092C107.454 12.7853 108.91 13.4613 110.608 14.12C111.752 13.08 112.324 11.7627 112.324 10.168C112.324 7.568 111.007 6.268 108.372 6.268C107.159 6.268 106.206 6.54533 105.512 7.1C104.819 7.65467 104.472 8.36533 104.472 9.232ZM103.848 26.288C103.848 27.64 104.264 28.7493 105.096 29.616C105.928 30.448 107.072 30.864 108.528 30.864C109.984 30.864 111.128 30.5347 111.96 29.876C112.792 29.1827 113.208 28.264 113.208 27.12C113.208 26.1147 112.619 25.2653 111.44 24.572C110.296 23.8787 108.338 23.064 105.564 22.128C104.42 23.376 103.848 24.7627 103.848 26.288ZM127.644 45.788L125.824 41.212C128.875 40.172 130.4 38.872 130.4 37.312C129.013 37.312 127.852 36.8093 126.916 35.804C126.015 34.7987 125.564 33.5333 125.564 32.008C125.564 30.4827 126.084 29.2347 127.124 28.264C128.199 27.2587 129.585 26.756 131.284 26.756C133.156 26.756 134.612 27.4147 135.652 28.732C136.727 30.0147 137.264 31.7827 137.264 34.036C137.264 36.9827 136.432 39.4787 134.768 41.524C133.104 43.5693 130.729 44.9907 127.644 45.788ZM155.801 37.416C152.646 37.416 149.838 36.636 147.377 35.076C144.916 33.4813 142.974 31.2973 141.553 28.524C140.166 25.716 139.473 22.5093 139.473 18.904C139.473 15.3333 140.166 12.1613 141.553 9.388C142.974 6.61467 144.916 4.43067 147.377 2.836C149.838 1.24133 152.646 0.444 155.801 0.444C158.158 0.444 160.325 0.911999 162.301 1.848C164.277 2.74933 165.993 4.032 167.449 5.696C168.905 7.32533 170.032 9.26667 170.829 11.52C171.661 13.7733 172.077 16.2347 172.077 18.904C172.077 22.4747 171.366 25.664 169.945 28.472C168.558 31.2453 166.634 33.4293 164.173 35.024C161.746 36.6187 158.956 37.416 155.801 37.416ZM155.801 28.524C157.534 28.524 158.886 27.6747 159.857 25.976C160.862 24.2773 161.365 21.92 161.365 18.904C161.365 15.9573 160.862 13.6347 159.857 11.936C158.886 10.2027 157.534 9.336 155.801 9.336C154.033 9.336 152.646 10.1853 151.641 11.884C150.67 13.5827 150.185 15.9227 150.185 18.904C150.185 21.8507 150.688 24.1907 151.693 25.924C152.733 27.6573 154.102 28.524 155.801 28.524ZM191.094 37.416C187.939 37.416 185.131 36.636 182.67 35.076C180.209 33.4813 178.267 31.2973 176.846 28.524C175.459 25.716 174.766 22.5093 174.766 18.904C174.766 15.3333 175.459 12.1613 176.846 9.388C178.267 6.61467 180.209 4.43067 182.67 2.836C185.131 1.24133 187.939 0.444 191.094 0.444C193.451 0.444 195.618 0.911999 197.594 1.848C199.57 2.74933 201.286 4.032 202.742 5.696C204.198 7.32533 205.325 9.26667 206.122 11.52C206.954 13.7733 207.37 16.2347 207.37 18.904C207.37 22.4747 206.659 25.664 205.238 28.472C203.851 31.2453 201.927 33.4293 199.466 35.024C197.039 36.6187 194.249 37.416 191.094 37.416ZM191.094 28.524C192.827 28.524 194.179 27.6747 195.15 25.976C196.155 24.2773 196.658 21.92 196.658 18.904C196.658 15.9573 196.155 13.6347 195.15 11.936C194.179 10.2027 192.827 9.336 191.094 9.336C189.326 9.336 187.939 10.1853 186.934 11.884C185.963 13.5827 185.478 15.9227 185.478 18.904C185.478 21.8507 185.981 24.1907 186.986 25.924C188.026 27.6573 189.395 28.524 191.094 28.524ZM226.387 37.416C223.232 37.416 220.424 36.636 217.963 35.076C215.502 33.4813 213.56 31.2973 212.139 28.524C210.752 25.716 210.059 22.5093 210.059 18.904C210.059 15.3333 210.752 12.1613 212.139 9.388C213.56 6.61467 215.502 4.43067 217.963 2.836C220.424 1.24133 223.232 0.444 226.387 0.444C228.744 0.444 230.911 0.911999 232.887 1.848C234.863 2.74933 236.579 4.032 238.035 5.696C239.491 7.32533 240.618 9.26667 241.415 11.52C242.247 13.7733 242.663 16.2347 242.663 18.904C242.663 22.4747 241.952 25.664 240.531 28.472C239.144 31.2453 237.22 33.4293 234.759 35.024C232.332 36.6187 229.542 37.416 226.387 37.416ZM226.387 28.524C228.12 28.524 229.472 27.6747 230.443 25.976C231.448 24.2773 231.951 21.92 231.951 18.904C231.951 15.9573 231.448 13.6347 230.443 11.936C229.472 10.2027 228.12 9.336 226.387 9.336C224.619 9.336 223.232 10.1853 222.227 11.884C221.256 13.5827 220.771 15.9227 220.771 18.904C220.771 21.8507 221.274 24.1907 222.279 25.924C223.319 27.6573 224.688 28.524 226.387 28.524Z" fill="white"/>
</svg>

<svg xmlns="http://www.w3.org/2000/svg" width="243" height="46" fill="none"><path fill="#fff" d="M.662 28.004v-8.112h13.987v8.112zM22.519 37V24.52h-3.38v-3.9h3.38v-2.6h-3.38v-3.9h3.38V1.224H32.97l8.684 12.896h5.304V1.224h9.568V14.12h3.38v3.9h-3.38v2.6h3.38v3.9h-3.38V37h-10.4l-8.424-12.48h-5.616V37zm9.568-16.38h3.016l-3.016-4.42zm14.872 1.352V18.02h-2.652zm15.509-9.048q0-3.64 1.664-6.448 1.716-2.808 4.836-4.42T76.352.444q5.044 0 8.372 2.132 3.38 2.131 5.044 5.928 1.716 3.744 1.716 8.788 0 5.876-2.288 10.452-2.236 4.524-6.292 7.072t-9.464 2.548q-2.756 0-5.148-.572-2.392-.624-4.264-1.976l2.132-7.488q1.507.832 3.12 1.3 1.613.416 3.224.416 3.795 0 5.98-2.6 2.235-2.652 2.6-7.28-1.3 2.392-3.536 3.484-2.184 1.092-4.16 1.092-3.328 0-5.824-1.352a9.52 9.52 0 0 1-3.796-3.796q-1.3-2.445-1.3-5.668m9.412-.676q0 1.768 1.196 2.86 1.248 1.04 3.224 1.04 1.248 0 2.496-.312a8.6 8.6 0 0 0 2.288-1.04q-.572-6.864-4.784-6.864-2.028 0-3.224 1.196t-1.196 3.12M93.968 27.9q0-5.46 7.02-8.008a12.5 12.5 0 0 1-3.536-3.484q-1.456-2.132-1.456-5.512 0-3.225 1.664-5.564 1.716-2.34 4.628-3.588 2.912-1.3 6.656-1.3 3.38 0 5.98 1.092 2.601 1.04 4.056 2.912 1.508 1.872 1.508 4.368 0 2.548-1.248 4.316-1.248 1.716-4.004 2.912 2.028.936 3.744 2.288a9.65 9.65 0 0 1 2.808 3.224q1.092 1.924 1.092 4.732 0 3.536-1.976 6.136-1.976 2.548-5.252 3.9-3.223 1.352-7.176 1.352-4.368 0-7.644-1.196-3.224-1.196-5.044-3.38t-1.82-5.2m10.504-18.668q0 1.768 1.768 2.86 1.821 1.04 4.368 2.028 1.716-1.56 1.716-3.952 0-3.9-3.952-3.9-1.82 0-2.86.832t-1.04 2.132m-.624 17.056q0 2.028 1.248 3.328 1.248 1.248 3.432 1.248t3.432-.988q1.248-1.04 1.248-2.756 0-1.508-1.768-2.548-1.715-1.04-5.876-2.444-1.716 1.872-1.716 4.16m23.796 19.5-1.82-4.576q4.576-1.56 4.576-3.9-2.08 0-3.484-1.508-1.352-1.507-1.352-3.796 0-2.287 1.56-3.744 1.612-1.508 4.16-1.508 2.808 0 4.368 1.976 1.612 1.924 1.612 5.304 0 4.42-2.496 7.488t-7.124 4.264m28.157-8.372q-4.732 0-8.424-2.34-3.692-2.392-5.824-6.552-2.08-4.212-2.08-9.62 0-5.356 2.08-9.516 2.132-4.16 5.824-6.552t8.424-2.392q3.536 0 6.5 1.404a15.1 15.1 0 0 1 5.148 3.848q2.184 2.444 3.38 5.824 1.248 3.38 1.248 7.384 0 5.356-2.132 9.568-2.08 4.16-5.772 6.552-3.64 2.392-8.372 2.392m0-8.892q2.6 0 4.056-2.548 1.508-2.548 1.508-7.072 0-4.42-1.508-6.968-1.456-2.6-4.056-2.6-2.652 0-4.16 2.548-1.456 2.549-1.456 7.02 0 4.42 1.508 7.02 1.56 2.6 4.108 2.6m35.293 8.892q-4.732 0-8.424-2.34-3.692-2.392-5.824-6.552-2.08-4.212-2.08-9.62 0-5.356 2.08-9.516 2.132-4.16 5.824-6.552t8.424-2.392q3.536 0 6.5 1.404a15.1 15.1 0 0 1 5.148 3.848q2.184 2.444 3.38 5.824 1.248 3.38 1.248 7.384 0 5.356-2.132 9.568-2.08 4.16-5.772 6.552-3.64 2.392-8.372 2.392m0-8.892q2.6 0 4.056-2.548 1.508-2.548 1.508-7.072 0-4.42-1.508-6.968-1.456-2.6-4.056-2.6-2.652 0-4.16 2.548-1.456 2.549-1.456 7.02 0 4.42 1.508 7.02 1.56 2.6 4.108 2.6m35.293 8.892q-4.732 0-8.424-2.34-3.692-2.392-5.824-6.552-2.08-4.212-2.08-9.62 0-5.356 2.08-9.516 2.132-4.16 5.824-6.552t8.424-2.392q3.536 0 6.5 1.404a15.1 15.1 0 0 1 5.148 3.848q2.184 2.444 3.38 5.824 1.248 3.38 1.248 7.384 0 5.356-2.132 9.568-2.08 4.16-5.772 6.552-3.64 2.392-8.372 2.392m0-8.892q2.6 0 4.056-2.548 1.508-2.548 1.508-7.072 0-4.42-1.508-6.968-1.456-2.6-4.056-2.6-2.652 0-4.16 2.548-1.456 2.549-1.456 7.02 0 4.42 1.508 7.02 1.56 2.6 4.108 2.6"/></svg>
